X: 2
T: The Girl Of The House
R: jig
M: 6/8
L: 1/8
K: Gmaj
AG||:F2 D DAG|F2F GEA| DED AGE| F2D DAG|!F2F GFG| AGA cde |dcA GEA|1DED DAG:||2 DED DAB||!c2 A AGF|G2G GFG|AdB cAG|Ad^c deg|!fed cAG|EFA GEA|dcA GEA|1DED DAB:||2DED D3||


Tune 1214	Setting 29633

